sequoia/src/pages/Main/Utility/assets/game.svg

<svg width="112" height="120" viewBox="0 0 112 120" fill="none" xmlns="http://www.w3.org/2000/svg">
<g filter="url(#filter0_dii_370_25075)">
<path d="M52.6266 11.8554C54.7272 10.7001 57.2729 10.7001 59.3734 11.8554L92.3734 30.0054C94.6103 31.2356 96 33.5861 96 36.1389V71.8611C96 74.4139 94.6103 76.7644 92.3734 77.9946L59.3734 96.1446C57.2729 97.2999 54.7271 97.2999 52.6266 96.1446L19.6266 77.9946C17.3897 76.7644 16 74.4139 16 71.8611V36.1389C16 33.5861 17.3897 31.2356 19.6266 30.0054L52.6266 11.8554Z" fill="url(#paint0_radial_370_25075)" fill-opacity="0.179" shape-rendering="crispEdges"/>
</g>
<g clip-path="url(#clip0_370_25075)">
<path d="M63.6 42.6665H57.2667C57.2685 41.2681 58.4016 40.135 59.8 40.1332C62.5971 40.1304 64.8639 37.8637 64.8667 35.0665V33.7999C64.8667 33.1003 64.2996 32.5332 63.6 32.5332C62.9004 32.5332 62.3333 33.1003 62.3333 33.7999V35.0665C62.3315 36.4649 61.1984 37.598 59.8 37.5999C57.0029 37.6026 54.7361 39.8694 54.7333 42.6665H48.4C42.104 42.6665 37 47.7705 37 54.0665C37 60.3626 42.104 65.4665 48.4 65.4665H63.6C69.896 65.4665 75 60.3626 75 54.0665C75 47.7705 69.896 42.6665 63.6 42.6665ZM63.6 62.9332H48.4C43.5031 62.9332 39.5333 58.9635 39.5333 54.0665C39.5333 49.1696 43.5031 45.1999 48.4 45.1999H63.6C68.4969 45.1999 72.4667 49.1696 72.4667 54.0665C72.4667 58.9635 68.4969 62.9332 63.6 62.9332Z" fill="white"/>
<path d="M64.8635 49C62.0653 49 59.7969 51.2684 59.7969 54.0667C59.7969 56.8649 62.0653 59.1333 64.8635 59.1333C67.6618 59.1333 69.9302 56.8649 69.9302 54.0667C69.9275 51.2696 67.6607 49.0028 64.8635 49ZM64.8635 56.6C63.4644 56.6 62.3302 55.4658 62.3302 54.0667C62.3302 52.6676 63.4644 51.5333 64.8635 51.5333C66.2627 51.5333 67.3969 52.6676 67.3969 54.0667C67.3951 55.4651 66.262 56.5982 64.8635 56.6Z" fill="white"/>
<path d="M50.937 52.8H48.4036V50.2667C48.4036 49.5671 47.8366 49 47.137 49C46.4374 49 45.8703 49.5671 45.8703 50.2667V52.8H43.337C42.6374 52.8 42.0703 53.3671 42.0703 54.0667C42.0703 54.7663 42.6374 55.3333 43.337 55.3333H45.8703V57.8667C45.8703 58.5663 46.4374 59.1333 47.137 59.1333C47.8366 59.1333 48.4036 58.5663 48.4036 57.8667V55.3333H50.937C51.6366 55.3333 52.2036 54.7663 52.2036 54.0667C52.2036 53.3671 51.6366 52.8 50.937 52.8Z" fill="white"/>
</g>
<defs>
<filter id="filter0_dii_370_25075" x="0" y="0.98877" width="112" height="118.022" filterUnits="userSpaceOnUse" color-interpolation-filters="sRGB">
<feFlood flood-opacity="0" result="BackgroundImageFix"/>
<feColorMatrix in="SourceAlpha" type="matrix" values="0 0 0 0 0 0 0 0 0 0 0 0 0 0 0 0 0 0 127 0" result="hardAlpha"/>
<feOffset dy="6"/>
<feGaussianBlur stdDeviation="8"/>
<feComposite in2="hardAlpha" operator="out"/>
<feColorMatrix type="matrix" values="0 0 0 0 0 0 0 0 0 0 0 0 0 0 0 0 0 0 0.25 0"/>
<feBlend mode="normal" in2="BackgroundImageFix" result="effect1_dropShadow_370_25075"/>
<feBlend mode="normal" in="SourceGraphic" in2="effect1_dropShadow_370_25075" result="shape"/>
<feColorMatrix in="SourceAlpha" type="matrix" values="0 0 0 0 0 0 0 0 0 0 0 0 0 0 0 0 0 0 127 0" result="hardAlpha"/>
<feOffset dx="-1.12" dy="1.12"/>
<feGaussianBlur stdDeviation="0.56"/>
<feComposite in2="hardAlpha" operator="arithmetic" k2="-1" k3="1"/>
<feColorMatrix type="matrix" values="0 0 0 0 1 0 0 0 0 1 0 0 0 0 1 0 0 0 0.558 0"/>
<feBlend mode="normal" in2="shape" result="effect2_innerShadow_370_25075"/>
<feColorMatrix in="SourceAlpha" type="matrix" values="0 0 0 0 0 0 0 0 0 0 0 0 0 0 0 0 0 0 127 0" result="hardAlpha"/>
<feOffset dx="1.12" dy="-1.12"/>
<feGaussianBlur stdDeviation="0.56"/>
<feComposite in2="hardAlpha" operator="arithmetic" k2="-1" k3="1"/>
<feColorMatrix type="matrix" values="0 0 0 0 0.84 0 0 0 0 0.84 0 0 0 0 0.84 0 0 0 0.558 0"/>
<feBlend mode="normal" in2="effect2_innerShadow_370_25075" result="effect3_innerShadow_370_25075"/>
</filter>
<radialGradient id="paint0_radial_370_25075" cx="0" cy="0" r="1" gradientUnits="userSpaceOnUse" gradientTransform="translate(56 54) rotate(90) scale(44 40)">
<stop stop-color="white"/>
<stop offset="1" stop-color="white" stop-opacity="0.21"/>
</radialGradient>
<clipPath id="clip0_370_25075">
<rect width="38" height="38" fill="white" transform="translate(37 30)"/>
</clipPath>
</defs>
</svg>

<svg width="112" height="120" fill="none" xmlns="http://www.w3.org/2000/svg"><g filter="url(#a)"><path d="M52.63 11.86a7 7 0 0 1 6.74 0l33 18.15A7 7 0 0 1 96 36.14v35.72A7 7 0 0 1 92.37 78l-33 18.15a7 7 0 0 1-6.74 0L19.63 78A7 7 0 0 1 16 71.86V36.14A7 7 0 0 1 19.63 30l33-18.15Z" fill="url(#b)" fill-opacity=".18" shape-rendering="crispEdges"/></g><g clip-path="url(#c)" fill="#fff"><path d="M63.6 42.67h-6.33c0-1.4 1.13-2.54 2.53-2.54 2.8 0 5.06-2.27 5.07-5.06V33.8a1.27 1.27 0 1 0-2.54 0v1.27c0 1.4-1.13 2.53-2.53 2.53a5.07 5.07 0 0 0-5.07 5.07H48.4a11.4 11.4 0 0 0 0 22.8h15.2a11.4 11.4 0 1 0 0-22.8Zm0 20.26H48.4a8.87 8.87 0 1 1 0-17.73h15.2a8.87 8.87 0 1 1 0 17.73Z"/><path d="M64.86 49a5.07 5.07 0 1 0 0 10.13 5.07 5.07 0 0 0 0-10.13Zm0 7.6a2.53 2.53 0 1 1 0-5.07 2.53 2.53 0 0 1 0 5.07ZM50.94 52.8H48.4v-2.53a1.27 1.27 0 1 0-2.53 0v2.53h-2.53a1.27 1.27 0 1 0 0 2.53h2.53v2.54a1.27 1.27 0 1 0 2.53 0v-2.54h2.54a1.27 1.27 0 1 0 0-2.53Z"/></g><defs><radialGradient id="b" cx="0" cy="0" r="1" gradientUnits="userSpaceOnUse" gradientTransform="matrix(0 44 -40 0 56 54)"><stop stop-color="#fff"/><stop offset="1" stop-color="#fff" stop-opacity=".21"/></radialGradient><clipPath id="c"><path fill="#fff" transform="translate(37 30)" d="M0 0h38v38H0z"/></clipPath><filter id="a" x="0" y=".99" width="112" height="118.02" filterUnits="userSpaceOnUse" color-interpolation-filters="sRGB"><feFlood flood-opacity="0" result="BackgroundImageFix"/><feColorMatrix in="SourceAlpha" values="0 0 0 0 0 0 0 0 0 0 0 0 0 0 0 0 0 0 127 0" result="hardAlpha"/><feOffset dy="6"/><feGaussianBlur stdDeviation="8"/><feComposite in2="hardAlpha" operator="out"/><feColorMatrix values="0 0 0 0 0 0 0 0 0 0 0 0 0 0 0 0 0 0 0.25 0"/><feBlend in2="BackgroundImageFix" result="effect1_dropShadow_370_25075"/><feBlend in="SourceGraphic" in2="effect1_dropShadow_370_25075" result="shape"/><feColorMatrix in="SourceAlpha" values="0 0 0 0 0 0 0 0 0 0 0 0 0 0 0 0 0 0 127 0" result="hardAlpha"/><feOffset dx="-1.12" dy="1.12"/><feGaussianBlur stdDeviation=".56"/><feComposite in2="hardAlpha" operator="arithmetic" k2="-1" k3="1"/><feColorMatrix values="0 0 0 0 1 0 0 0 0 1 0 0 0 0 1 0 0 0 0.558 0"/><feBlend in2="shape" result="effect2_innerShadow_370_25075"/><feColorMatrix in="SourceAlpha" values="0 0 0 0 0 0 0 0 0 0 0 0 0 0 0 0 0 0 127 0" result="hardAlpha"/><feOffset dx="1.12" dy="-1.12"/><feGaussianBlur stdDeviation=".56"/><feComposite in2="hardAlpha" operator="arithmetic" k2="-1" k3="1"/><feColorMatrix values="0 0 0 0 0.84 0 0 0 0 0.84 0 0 0 0 0.84 0 0 0 0.558 0"/><feBlend in2="effect2_innerShadow_370_25075" result="effect3_innerShadow_370_25075"/></filter></defs></svg>
